src/assets/images/logo.svg

<svg width="41" height="41" viewBox="0 0 41 41" fill="none" xmlns="http://www.w3.org/2000/svg">
<path d="M20.448 0C9.155 0 0 9.178 0 20.5C0 31.822 9.155 41 20.448 41C31.741 41 40.895 31.822 40.895 20.5C40.895 9.178 31.741 0 20.448 0ZM20.448 1.64C30.838 1.64 39.26 10.084 39.26 20.5C39.26 30.916 30.837 39.36 20.448 39.36C10.058 39.36 1.636 30.916 1.636 20.5C1.636 10.084 10.058 1.64 20.448 1.64Z" fill="url(#paint0_linear)"/>
<path d="M30.1 9.84C30.55 9.84 30.917 10.207 30.917 10.66C30.9182 11.834 30.4611 12.9621 29.6431 13.804C28.825 14.646 27.7105 15.1354 26.537 15.168L26.418 15.17H18.24C18.0228 15.178 17.8113 15.0993 17.6521 14.9513C17.4929 14.8034 17.399 14.5982 17.391 14.381C17.383 14.1638 17.4617 13.9523 17.6097 13.7931C17.7576 13.6339 17.9628 13.54 18.18 13.532L18.24 13.53H26.42C27.0311 13.5292 27.6259 13.3331 28.1176 12.9702C28.6093 12.6073 28.9721 12.0967 29.153 11.513L29.163 11.48H18.444C17.6467 11.4807 16.8809 11.7915 16.3087 12.3467C15.7364 12.902 15.4027 13.6581 15.378 14.455L15.377 14.555C15.377 16.22 16.697 17.575 18.345 17.628L18.444 17.63H23.76C24.4658 17.6311 25.1424 17.9124 25.6408 18.4122C26.1392 18.9119 26.4188 19.5892 26.418 20.295C26.4187 20.9842 26.1522 21.6468 25.6743 22.1435C25.1965 22.6401 24.5447 22.9321 23.856 22.958L23.76 22.96H19.057V29.315C19.0577 30.0044 18.791 30.6671 18.313 31.1638C17.835 31.6605 17.1829 31.9524 16.494 31.978L16.399 31.98C15.7096 31.9791 15.0475 31.7107 14.552 31.2313C14.0566 30.7519 13.7666 30.099 13.743 29.41L13.741 29.315V25.83C13.7398 24.656 14.1969 23.5279 15.0149 22.6859C15.833 21.844 16.9475 21.3546 18.121 21.322L18.239 21.32H23.76C24.0316 21.3289 24.2956 21.2295 24.4939 21.0438C24.6922 20.858 24.8086 20.6011 24.8175 20.3295C24.8264 20.0579 24.727 19.7939 24.5413 19.5956C24.3555 19.3973 24.0986 19.2809 23.827 19.272L23.76 19.27H18.444C17.8256 19.2692 17.2134 19.1466 16.6424 18.9093C16.0714 18.6719 15.5527 18.3243 15.116 17.8865C14.6793 17.4487 14.3331 16.9291 14.0972 16.3575C13.8612 15.7859 13.7402 15.1734 13.741 14.555C13.7395 13.3268 14.2178 12.1467 15.0739 11.2661C15.9301 10.3855 17.0963 9.87411 18.324 9.841L18.444 9.84H30.099H30.1ZM17.42 23.079L17.387 23.089C16.8213 23.2662 16.3243 23.6143 15.9644 24.0854C15.6044 24.5565 15.3993 25.1276 15.377 25.72L15.376 25.83V29.315C15.376 29.881 15.833 30.34 16.398 30.34C16.94 30.34 17.384 29.917 17.418 29.382L17.42 29.315V23.079V23.079Z" fill="url(#paint1_linear)"/>
<path opacity="0.5" fill-rule="evenodd" clip-rule="evenodd" d="M18.32 19.68L18.321 22.345H16.685V19.809C16.9492 19.7234 17.2253 19.6799 17.503 19.68H18.32Z" fill="url(#paint2_linear)"/>
<defs>
<linearGradient id="paint0_linear" x1="20.4475" y1="0" x2="20.4475" y2="41" gradientUnits="userSpaceOnUse">
<stop stop-color="#4B8FE0"/>
<stop offset="0.48909" stop-color="#4326C3"/>
<stop offset="1" stop-color="#CC0424"/>
</linearGradient>
<linearGradient id="paint1_linear" x1="22.329" y1="10.2228" x2="22.329" y2="31.98" gradientUnits="userSpaceOnUse">
<stop stop-color="#4B8FE0"/>
<stop offset="0.44022" stop-color="#4326C3"/>
<stop offset="1" stop-color="#CC0424"/>
</linearGradient>
<linearGradient id="paint2_linear" x1="17.503" y1="19.68" x2="17.503" y2="22.345" gradientUnits="userSpaceOnUse">
<stop/>
<stop offset="1" stop-opacity="0"/>
</linearGradient>
</defs>
</svg>

<svg width="147" height="41" xmlns="http://www.w3.org/2000/svg"><defs><linearGradient x1="50%" y1="0%" x2="50%" y2="100%" id="a"><stop stop-color="#4B8FE0" offset="0%"/><stop stop-color="#4326C3" offset="48.909%"/><stop stop-color="#CC0424" offset="100%"/></linearGradient><linearGradient x1="50%" y1="1.729%" x2="50%" y2="100%" id="b"><stop stop-color="#4B8FE0" offset="0%"/><stop stop-color="#4326C3" offset="44.022%"/><stop stop-color="#CC0424" offset="100%"/></linearGradient><linearGradient x1="50%" y1="0%" x2="50%" y2="100%" id="c"><stop offset="0%"/><stop stop-opacity="0" offset="100%"/></linearGradient></defs><g fill="none" fill-rule="evenodd"><path d="M20.448 0C9.155 0 0 9.178 0 20.5S9.155 41 20.448 41c11.293 0 20.447-9.178 20.447-20.5S31.741 0 20.448 0zm0 1.64c10.39 0 18.812 8.444 18.812 18.86 0 10.416-8.423 18.86-18.812 18.86-10.39 0-18.812-8.444-18.812-18.86 0-10.416 8.422-18.86 18.812-18.86z" fill="url(#a)" fill-rule="nonzero"/><path d="M30.1 9.84c.45 0 .817.367.817.82a4.505 4.505 0 01-4.38 4.508l-.119.002H18.24a.819.819 0 01-.06-1.638l.06-.002h8.18a2.865 2.865 0 002.733-2.017l.01-.033H18.444a3.07 3.07 0 00-3.066 2.975l-.001.1c0 1.665 1.32 3.02 2.968 3.073l.099.002h5.316a2.662 2.662 0 012.658 2.665 2.662 2.662 0 01-2.562 2.663l-.096.002h-4.703v6.355a2.662 2.662 0 01-2.563 2.663l-.095.002a2.661 2.661 0 01-2.656-2.57l-.002-.095V25.83a4.505 4.505 0 014.38-4.508l.118-.002h5.521a1.024 1.024 0 00.067-2.048l-.067-.002h-5.316a4.709 4.709 0 01-4.703-4.715 4.71 4.71 0 014.583-4.714l.12-.001h11.655zM17.42 23.079l-.033.01a2.87 2.87 0 00-2.01 2.631l-.001.11v3.485c0 .566.457 1.025 1.022 1.025.542 0 .986-.423 1.02-.958l.002-.067v-6.236z" fill="url(#b)" fill-rule="nonzero"/><path d="M18.32 19.68l.001 2.665h-1.636v-2.536a2.65 2.65 0 01.818-.129h.817z" fill="url(#c)" opacity=".5"/><path d="M55.081 28.95v-7.036h8.88v-2.891h-8.88V14.8h9.723v-2.993H52.019v17.141h3.062zm17.379.357c1.99 0 3.615-.643 4.874-1.931 1.259-1.288 1.888-2.887 1.888-4.797 0-1.91-.625-3.505-1.876-4.784-1.25-1.28-2.879-1.92-4.886-1.92-2.042 0-3.696.64-4.964 1.92-1.267 1.279-1.9 2.874-1.9 4.784 0 1.91.637 3.51 1.913 4.797 1.276 1.288 2.926 1.931 4.95 1.931zm0-2.814c-1.157 0-2.097-.375-2.82-1.125-.723-.75-1.085-1.672-1.085-2.764 0-1.108.362-2.033 1.085-2.775s1.663-1.113 2.82-1.113c1.122 0 2.041.37 2.756 1.113.714.742 1.071 1.667 1.071 2.775 0 1.092-.357 2.013-1.071 2.764-.715.75-1.634 1.125-2.756 1.125zm11.917 2.456v-6.217c0-1.091.31-1.953.931-2.584.621-.63 1.434-.946 2.437-.946h2.629v-2.968h-2.578c-1.684 0-2.824.7-3.42 2.098h-.101v-2.098h-2.833v12.715h2.935zm17.48 0v-2.865H97.52c-.765 0-1.148-.367-1.148-1.1v-5.885h5.486v-2.865h-5.486v-4.426h-2.935v4.426h-2.041v2.865h2.041v6.396c0 1.092.306 1.94.919 2.546.612.606 1.471.908 2.577.908h4.925zm8.166.358c1.855 0 3.335-.558 4.44-1.675 1.106-1.117 1.66-2.606 1.66-4.465V16.26h-2.935v6.882c0 .955-.285 1.752-.855 2.392-.57.64-1.34.96-2.31.96-.952 0-1.71-.32-2.27-.96-.562-.64-.843-1.437-.843-2.392V16.26h-2.935v6.907c0 1.86.549 3.348 1.646 4.465 1.098 1.117 2.565 1.675 4.402 1.675zm11.867-.358v-6.472c0-1.092.323-1.983.97-2.674.646-.69 1.462-1.036 2.449-1.036.902 0 1.629.303 2.182.908.553.606.83 1.411.83 2.418v6.856h2.934v-7.317c0-1.774-.468-3.176-1.404-4.208-.935-1.032-2.203-1.548-3.802-1.548-1.752 0-3.122.665-4.108 1.995h-.103v-1.637h-2.883v12.715h2.935zm17.76.358c1.906 0 3.344-.733 4.313-2.2h.128v1.842H147V16.234h-2.91v1.765h-.127c-.442-.63-1.033-1.138-1.773-1.522-.74-.384-1.587-.584-2.54-.601-1.82-.017-3.317.605-4.49 1.867-1.175 1.263-1.762 2.883-1.762 4.861 0 1.979.592 3.6 1.774 4.861 1.182 1.263 2.675 1.877 4.479 1.842zm.588-2.814c-1.14 0-2.072-.375-2.795-1.125-.723-.75-1.084-1.68-1.084-2.79 0-1.108.361-2.037 1.084-2.788.723-.75 1.655-1.125 2.795-1.125 1.122 0 2.041.375 2.756 1.125.714.75 1.071 1.68 1.071 2.789 0 1.091-.357 2.017-1.071 2.776-.715.759-1.634 1.138-2.756 1.138z" fill="#FFF" fill-rule="nonzero"/></g></svg>
